packages/paste-website/src/assets/illustrations/home_getstarted_3.svg

<svg height="64" viewBox="0 0 63 64" width="63" xmlns="http://www.w3.org/2000/svg"><g fill="none" fill-rule="evenodd"><path d="m11.6926984 25.5796825h10.3009524c1.4894515-.0013937 2.8587776-.8175588 3.5685881-2.1270002.7098104-1.3094414.6463386-2.9022851-.1654135-4.151095l-5.0793651-8.1269841c-.7448846-1.17701413-2.0407347-1.89047346-3.4336508-1.89047346s-2.6887662.71345933-3.4336508 1.89047346l-5.15047616 8.1269841c-.7926503 1.2517238-.84120459 2.8356523-.12671209 4.1335765.7144925 1.2979243 2.07877355 2.104103 3.56036285 2.1038838zm-.8736508-4.6120635 5.1504762-8.1269841c.182997-.3084053.5150399-.4974791.8736508-.4974791s.6906538.1890738.8736508.4974791l5.1504762 8.1269841c.1814682.3143123.1814682.7015609 0 1.0158731-.1776962.3337402-.5260387.5411801-.904127.5384127h-10.2704762c-.3815464.0121586-.7377015-.1906083-.9219982-.524914-.1842967-.3343056-.1656207-.7437101.0483474-1.0598479zm25.8844445 4.6120635c.0926317.1330355.2442425.2126312.4063492.2133334h1.1377777c.2084714.000185.3949749-.1295565.4673016-.3250794l1.0869842-3.047619h3.9619047l1.015873 3.047619c.0634468.2035474.2541566.340361.4673016.3352381h1.2495238c.159394-.0005213.3080155-.0805483.3961905-.2133333.095652-.1286726.1186602-.2973989.0609524-.4469842l-3.7892064-10.463492c-.1359877-.3710892-.4885906-.6183165-.8838095-.6197133h-.8126984c-.3935541-.0031497-.7469295.2405575-.8838095.6095545l-3.9415873 10.4634921c-.0522383.1501782-.0295886.3162758.0609524.4469841zm3.7485714-4.9574603 1.3511111-3.687619 1.2698413 3.687619zm12.5053968-.3047619-2.1638095.2336508c-.7459734.0655392-1.4544689.3560223-2.031746.8330159-.5599941.5217225-.8548398 1.2681673-.8025397 2.031746.0010442.709477.2907818 1.3879766.8025397 1.8793651.5512836.5114449 1.2799315.7883311 2.031746.7720635.6421547.0025283 1.2757663-.1471711 1.8488889-.4368254.3219853-.1614396.6223413-.3628146.8939682-.5993651.0394117.1018642.0869733.2003846.1422223.2946032.2804415.4280927.7692609.6725023 1.28.64.165666.013134.3321117.013134.4977777 0 .1796319-.0233494.3565555-.0641779.528254-.1219048l.2234921-.0609524v-1.6253968l-.3657143.0609524h-.2133334-.1726984c-.0812698 0-.1219047 0-.1219047 0-.0125501-.0534531-.0125501-.1090866 0-.1625397v-4.6730159c.0507064-.7885408-.3406822-1.5400068-1.015873-1.9504761-.7675271-.4176755-1.6369739-.611277-2.5092064-.5587302-.8203701-.0109613-1.6270281.2109577-2.3263492.64-.5235515.3243894-.890846.8496205-1.015873 1.4526984l-.0914286.3860318h2.031746l.0812699-.1219048c.0355467-.0443772.0599324-.0966321.0711111-.152381.3305927-.3245506.7887294-.4847123 1.2495238-.4368254.4359359-.0258803.8708599.0653135 1.2596825.264127.2473948.171139.3833012.462367.3555556.7619048.0084022.1315978-.0124126.2634248-.0609524.3860317-.0507936.0812699-.1320635.1930159-.4063492.264127zm-1.4831746 1.9098413.8228572-.1015873c.2750829-.0306222.5469979-.0850052.8126984-.1625397l.264127-.0812698v.4673015c.0083646.7395712-.4224719 1.4137504-1.0971429 1.7168254-.6071788.3481517-1.3534562.3481517-1.9606349 0-.2112725-.1651869-.3287905-.4229682-.3149207-.6907936-.0257768-.356961.1614317-.6955294.4774604-.8634921.311079-.1638831.6477071-.2738025.9955555-.3250793zm2.6819048 9.6304762h-14.2222222c-.8415768 0-1.5238096.6822327-1.5238096 1.5238095s.6822328 1.5238095 1.5238096 1.5238095h14.2222222c.8415767 0 1.5238095-.6822327 1.5238095-1.5238095s-.6822328-1.5238095-1.5238095-1.5238095zm0 8.1269841h-14.2222222c-.8415768 0-1.5238096.6822328-1.5238096 1.5238095 0 .8415768.6822328 1.5238096 1.5238096 1.5238096h14.2222222c.8415767 0 1.5238095-.6822328 1.5238095-1.5238096 0-.8415767-.6822328-1.5238095-1.5238095-1.5238095zm0 8.1269841h-14.2222222c-.8415768 0-1.5238096.6822328-1.5238096 1.5238096 0 .8415767.6822328 1.5238095 1.5238096 1.5238095h14.2222222c.8415767 0 1.5238095-.6822328 1.5238095-1.5238095 0-.8415768-.6822328-1.5238096-1.5238095-1.5238096zm-37.3130159-10.1688889c-3.569227 0-6.78642 2.1517164-8.14943947 5.4504372-1.36301949 3.2987208-.60300519 7.0937835 1.92518457 9.6132353 2.5281899 2.5194519 6.3258611 3.2663224 9.6198431 1.8918902 3.293982-1.3744321 5.4345256-4.5990554 5.4222426-8.1682611-.0168435-4.8580182-3.9597835-8.7873016-8.8178308-8.7873016zm0 14.608254c-3.1979917 0-5.7904762-2.5924845-5.7904762-5.7904762s2.5924845-5.790481 5.7904762-5.790481c1.2564515-.0016356 2.4780994.4127245 3.4742857 1.1784175l-3.8806349 4.6526984-.8533333-.8533333c-.382898-.382898-.940984-.5324367-1.4640324-.3922863-.5230483.1401504-.9315956.5486977-1.071746 1.071746-.1401504.5230484.0093883 1.0811344.3922863 1.4640324l2.031746 2.031746c.2834052.2815312.6671986.4387038 1.0666667.4368254h.0711111c.4248179-.0185299.82257-.2137231 1.0971429-.5384127l4.5003174-5.4146032c.2775912.6736544.4224663 1.3945805.4267024 2.1231746.0053614 1.5401825-.6019974 3.0192801-1.6882154 4.111215-1.0862179 1.0919349-2.5621069 1.7070495-4.1022965 1.7097374z" fill="#f22f46"/><path d="m60.7593651.51809524h-58.5346032c-.83596625 0-1.51365079.67768454-1.51365079 1.51365079v59.93650797c0 .8359662.67768454 1.5136508 1.51365079 1.5136508h58.5346032c.8359662 0 1.5136508-.6776846 1.5136508-1.5136508v-59.93650797c0-.83596625-.6776846-1.51365079-1.5136508-1.51365079zm-30.4761905 3.04761905v27.11365081h-26.5447619v-27.13396827zm-26.5447619 30.14095241h26.5549206v26.7479365h-26.5549206zm55.5073016 26.7479365h-25.9250794v-56.88888891h25.9250794z" fill="#06033a"/></g></svg>

<svg xmlns="http://www.w3.org/2000/svg" width="63" height="64" viewBox="0 0 63 64">
  <g fill="none" fill-rule="evenodd">
    <path fill="#F22F46" d="M11.6926984 25.5796825L21.9936508 25.5796825C23.4831023 25.5782888 24.8524284 24.7621237 25.5622389 23.4526823 26.2720493 22.1432409 26.2085775 20.5503972 25.3968254 19.3015873L20.3174603 11.1746032C19.5725757 9.99758907 18.2767256 9.28412974 16.8838095 9.28412974 15.4908934 9.28412974 14.1950433 9.99758907 13.4501587 11.1746032L8.29968254 19.3015873C7.50703224 20.5533111 7.45847795 22.1372396 8.17297045 23.4351638 8.88746295 24.7330881 10.251744 25.5392668 11.7333333 25.5390476L11.6926984 25.5796825zM10.8190476 20.967619L15.9695238 12.8406349C16.1525208 12.5322296 16.4845637 12.3431558 16.8431746 12.3431558 17.2017855 12.3431558 17.5338284 12.5322296 17.7168254 12.8406349L22.8673016 20.967619C23.0487698 21.2819313 23.0487698 21.6691799 22.8673016 21.9834921 22.6896054 22.3172323 22.3412629 22.5246722 21.9631746 22.5219048L11.6926984 22.5219048C11.311152 22.5340634 10.9549969 22.3312965 10.7707002 21.9969908 10.5864035 21.6626852 10.6050795 21.2532807 10.8190476 20.9371429L10.8190476 20.967619zM36.7034921 25.5796825C36.7961238 25.712718 36.9477346 25.7923137 37.1098413 25.7930159L38.247619 25.7930159C38.4560904 25.7932009 38.6425939 25.6634594 38.7149206 25.4679365L39.8019048 22.4203175 43.7638095 22.4203175 44.7796825 25.4679365C44.8431293 25.6714839 45.0338391 25.8082975 45.2469841 25.8031746L46.4965079 25.8031746C46.6559019 25.8026533 46.8045234 25.7226263 46.8926984 25.5898413 46.9883504 25.4611687 47.0113586 25.2924424 46.9536508 25.1428571L43.1644444 14.6793651C43.0284567 14.3082759 42.6758538 14.0610486 42.2806349 14.0596518L41.4679365 14.0596518C41.0743824 14.0565021 40.721007 14.3002093 40.584127 14.6692063L36.6425397 25.1326984C36.5903014 25.2828766 36.6129511 25.4489742 36.7034921 25.5796825zM40.4520635 20.6222222L41.8031746 16.9346032 43.0730159 20.6222222 40.4520635 20.6222222zM52.9574603 20.3174603L50.7936508 20.5511111C50.0476774 20.6166503 49.3391819 20.9071334 48.7619048 21.384127 48.2019107 21.9058495 47.907065 22.6522943 47.9593651 23.415873 47.9604093 24.12535 48.2501469 24.8038496 48.7619048 25.2952381 49.3131884 25.806683 50.0418363 26.0835692 50.7936508 26.0673016 51.4358055 26.0698299 52.0694171 25.9201305 52.6425397 25.6304762 52.964525 25.4690366 53.264881 25.2676616 53.5365079 25.0311111 53.5759196 25.1329753 53.6234812 25.2314957 53.6787302 25.3257143 53.9591717 25.753807 54.4479911 25.9982166 54.9587302 25.9657143 55.1243962 25.9788483 55.2908419 25.9788483 55.4565079 25.9657143 55.6361398 25.9423649 55.8130634 25.9015364 55.9847619 25.8438095L56.208254 25.7828571 56.208254 24.1574603 55.8425397 24.2184127 55.6292063 24.2184127 55.4565079 24.2184127C55.3752381 24.2184127 55.3346032 24.2184127 55.3346032 24.2184127 55.3220531 24.1649596 55.3220531 24.1093261 55.3346032 24.055873L55.3346032 19.3828571C55.3853096 18.5943163 54.993921 17.8428503 54.3187302 17.432381 53.5512031 17.0147055 52.6817563 16.821104 51.8095238 16.8736508 50.9891537 16.8626895 50.1824957 17.0846085 49.4831746 17.5136508 48.9596231 17.8380402 48.5923286 18.3632713 48.4673016 18.9663492L48.375873 19.352381 50.407619 19.352381 50.4888889 19.2304762C50.5244356 19.186099 50.5488213 19.1338441 50.56 19.0780952 50.8905927 18.7535446 51.3487294 18.5933829 51.8095238 18.6412698 52.2454597 18.6153895 52.6803837 18.7065833 53.0692063 18.9053968 53.3166011 19.0765358 53.4525075 19.3677638 53.4247619 19.6673016 53.4331641 19.7988994 53.4123493 19.9307264 53.3638095 20.0533333 53.3130159 20.1346032 53.231746 20.2463492 52.9574603 20.3174603zM51.4742857 22.2273016L52.2971429 22.1257143C52.5722258 22.0950921 52.8441408 22.0407091 53.1098413 21.9631746L53.3739683 21.8819048 53.3739683 22.3492063C53.3823329 23.0887775 52.9514964 23.7629567 52.2768254 24.0660317 51.6696466 24.4141834 50.9233692 24.4141834 50.3161905 24.0660317 50.104918 23.9008448 49.9874 23.6430635 50.0012698 23.3752381 49.975493 23.0182771 50.1627015 22.6797087 50.4787302 22.511746 50.7898092 22.3478629 51.1264373 22.2379435 51.4742857 22.1866667L51.4742857 22.2273016zM54.1561905 31.8577778L39.9339683 31.8577778C39.0923915 31.8577778 38.4101587 32.5400105 38.4101587 33.3815873 38.4101587 34.2231641 39.0923915 34.9053968 39.9339683 34.9053968L54.1561905 34.9053968C54.9977672 34.9053968 55.68 34.2231641 55.68 33.3815873 55.68 32.5400105 54.9977672 31.8577778 54.1561905 31.8577778zM54.1561905 39.9847619L39.9339683 39.9847619C39.0923915 39.9847619 38.4101587 40.6669947 38.4101587 41.5085714 38.4101587 42.3501482 39.0923915 43.032381 39.9339683 43.032381L54.1561905 43.032381C54.9977672 43.032381 55.68 42.3501482 55.68 41.5085714 55.68 40.6669947 54.9977672 39.9847619 54.1561905 39.9847619zM54.1561905 48.111746L39.9339683 48.111746C39.0923915 48.111746 38.4101587 48.7939788 38.4101587 49.6355556 38.4101587 50.4771323 39.0923915 51.1593651 39.9339683 51.1593651L54.1561905 51.1593651C54.9977672 51.1593651 55.68 50.4771323 55.68 49.6355556 55.68 48.7939788 54.9977672 48.111746 54.1561905 48.111746L54.1561905 48.111746zM16.8431746 37.9428571C13.2739476 37.9428571 10.0567546 40.0945735 8.69373513 43.3932943 7.33071564 46.6920151 8.09072994 50.4870778 10.6189197 53.0065296 13.1471096 55.5259815 16.9447808 56.272852 20.2387628 54.8984198 23.5327448 53.5239877 25.6732884 50.2993644 25.6610054 46.7301587 25.6441619 41.8721405 21.7012219 37.9428571 16.8431746 37.9428571zM16.8431746 52.5511111C13.6451829 52.5511111 11.0526984 49.9586266 11.0526984 46.7606349 11.0526984 43.5626432 13.6451829 40.9701539 16.8431746 40.9701539 18.0996261 40.9685183 19.321274 41.3828784 20.3174603 42.1485714L16.4368254 46.8012698 15.5834921 45.9479365C15.2005941 45.5650385 14.6425081 45.4154998 14.1194597 45.5556502 13.5964114 45.6958006 13.1878641 46.1043479 13.0477137 46.6273962 12.9075633 47.1504446 13.057102 47.7085306 13.44 48.0914286L15.471746 50.1231746C15.7551512 50.4047058 16.1389446 50.5618784 16.5384127 50.56L16.6095238 50.56C17.0343417 50.5414701 17.4320938 50.3462769 17.7066667 50.0215873L22.2069841 44.6069841C22.4845753 45.2806385 22.6294504 46.0015646 22.6336865 46.7301587 22.6390479 48.2703412 22.0316891 49.7494388 20.9454711 50.8413737 19.8592532 51.9333086 18.3833642 52.5484232 16.8431746 52.5511111L16.8431746 52.5511111z"/>
    <path fill="#06033A" d="M60.7593651,0.518095238 L2.2247619,0.518095238 C1.38879565,0.518095238 0.711111111,1.19577978 0.711111111,2.03174603 L0.711111111,61.968254 C0.711111111,62.8042202 1.38879565,63.4819048 2.2247619,63.4819048 L60.7593651,63.4819048 C61.5953313,63.4819048 62.2730159,62.8042202 62.2730159,61.968254 L62.2730159,2.03174603 C62.2730159,1.19577978 61.5953313,0.518095238 60.7593651,0.518095238 Z M30.2831746,3.56571429 L30.2831746,30.6793651 L3.7384127,30.6793651 L3.7384127,3.54539683 L30.2831746,3.56571429 Z M3.7384127,33.7066667 L30.2933333,33.7066667 L30.2933333,60.4546032 L3.7384127,60.4546032 L3.7384127,33.7066667 Z M59.2457143,60.4546032 L33.3206349,60.4546032 L33.3206349,3.56571429 L59.2457143,3.56571429 L59.2457143,60.4546032 Z"/>
  </g>
</svg>
